packages/dnb-eufemia/assets/icons/heart_rate.svg

<svg width="16" height="16" viewBox="0 0 16 16" fill="none" xmlns="http://www.w3.org/2000/svg">
<path d="M2.24359 9.11672H5.05509C5.09846 9.11674 5.14097 9.1047 5.1779 9.08195C5.21482 9.05921 5.24469 9.02665 5.26418 8.98791L6.33638 6.84288C6.35701 6.8002 6.3901 6.7648 6.43129 6.74135C6.47248 6.71789 6.51982 6.7075 6.56704 6.71155C6.61427 6.7156 6.65915 6.73389 6.69574 6.76401C6.73234 6.79413 6.75893 6.83466 6.77199 6.88022L7.81805 10.365C7.83257 10.4099 7.86033 10.4494 7.89768 10.4782C7.93503 10.5071 7.98022 10.5239 8.02733 10.5266C8.07444 10.5293 8.12126 10.5177 8.16165 10.4933C8.20205 10.4689 8.23411 10.4329 8.25366 10.3899L9.23065 8.10986C9.2473 8.07131 9.27402 8.03795 9.30801 8.01328C9.342 7.98861 9.382 7.97355 9.42382 7.96966C9.46563 7.96578 9.50772 7.97323 9.54567 7.99121C9.58362 8.0092 9.61603 8.03707 9.63949 8.0719L10.334 9.11361C10.334 9.11361 11.9339 9.11361 13.7566 9.11361M14.9686 6C14.9859 5.87078 14.9962 5.74037 14.9991 5.60934C15.012 5.03462 14.8845 4.46543 14.6278 3.95111C14.3776 3.45086 14.0121 3.01722 13.5614 2.68592C13.1108 2.35462 12.5879 2.13514 12.0358 2.04557C11.4837 1.95599 10.9182 1.99888 10.3859 2.17071C9.85362 2.34253 9.36979 2.63837 8.97427 3.03385L7.99976 4.00836L7.02526 3.03697C6.62974 2.64148 6.1459 2.34564 5.61363 2.17382C5.08135 2.00199 4.51586 1.9591 3.96376 2.04868C3.41165 2.13825 2.88874 2.35774 2.43809 2.68904C1.98744 3.02034 1.62196 3.45397 1.37177 3.95422C1.115 4.46862 0.987705 5.03792 1.00094 5.61269C1.00393 5.74259 1.01407 5.87188 1.03122 6M9.63949 12.5403L8.33642 13.8996C8.29291 13.9451 8.24065 13.9812 8.18279 14.0059C8.12494 14.0306 8.06267 14.0434 7.99976 14.0434C7.93685 14.0434 7.87459 14.0306 7.81673 14.0059C7.75887 13.9812 7.70661 13.9451 7.6631 13.8996L6.36002 12.5403" stroke="black" stroke-width="1.5" stroke-linecap="round" stroke-linejoin="round"/>
</svg>

<svg width="16" height="16" viewBox="0 0 16 16" fill="none" xmlns="http://www.w3.org/2000/svg"><path d="M2.244 9.117h2.811a.234.234 0 0 0 .21-.13l1.071-2.144a.234.234 0 0 1 .436.037l1.046 3.485a.234.234 0 0 0 .436.025l.977-2.28a.234.234 0 0 1 .408-.038l.695 1.042h3.423M14.969 6a3.533 3.533 0 0 0-1.408-3.314 3.53 3.53 0 0 0-4.587.348L8 4.008l-.975-.971A3.53 3.53 0 0 0 1.031 6m8.608 6.54L8.336 13.9a.465.465 0 0 1-.673 0L6.36 12.54" stroke="#000" stroke-width="1.5" stroke-linecap="round" stroke-linejoin="round"/></svg>
